build/img/svg/little-ship.svg

<svg width="27" height="32" viewBox="0 0 27 32" fill="none" xmlns="http://www.w3.org/2000/svg">
<path d="M4.40549 16.3962L13.2165 9.93576C13.4162 9.8063 13.6711 9.8063 13.8708 9.93576L22.7254 16.3962V8.68818C22.7739 7.6312 21.9743 6.7343 20.9396 6.68484C20.9242 6.68407 20.9089 6.68356 20.8934 6.68322H6.23749C5.20189 6.70667 4.38094 7.58319 4.4039 8.6411C4.40423 8.6568 4.40473 8.67249 4.40549 8.68818V16.3962Z" fill="#011C40"/>
<path d="M15.7464 0H11.3845V5.34662H15.7464V0Z" fill="#011C40"/>
<path d="M24.2956 30.1638L27 21.03L23.2052 18.3122L22.9434 18.1785L14.0016 11.8072V30.6094H13.5217L12.6929 30.5649V11.8072L0 21.03L2.79163 30.1193L4.4039 31.9904C4.4039 31.9904 5.7624 31.9904 7.15817 31.9904C7.15817 31.9904 12.2467 31.997 13.5218 31.9904C14.8198 32.012 17.1251 31.9904 17.1251 31.9904H22.8127L24.2956 30.1638Z" fill="#011C40"/>
</svg>

<svg width="27" height="32" viewBox="0 0 27 32" fill="none" xmlns="http://www.w3.org/2000/svg"><path d="m4.4 16.4 8.82-6.46a.6.6 0 0 1 .65 0l8.86 6.46V8.69a1.9 1.9 0 0 0-1.84-2H6.24a1.9 1.9 0 0 0-1.83 2v7.7ZM15.75 0h-4.37v5.35h4.37V0Z" fill="#011C40"/><path d="m24.3 30.16 2.7-9.13-3.8-2.72-.26-.13L14 11.8v18.8h-.48l-.83-.05V11.81L0 21.03l2.8 9.09 1.6 1.87H13.52c1.3.02 3.6 0 3.6 0h5.7l1.48-1.83Z" fill="#011C40"/></svg>
